assets/svg/ficon/stack-exchange.svg

<?xml version="1.0" encoding="utf-8"?>
<svg width="1792" height="1792" viewBox="0 0 1792 1792" xmlns="http://www.w3.org/2000/svg"><path d="M1515 1253v66q0 85-57.5 144.5t-138.5 59.5h-57l-260 269v-269h-529q-81 0-138.5-59.5t-57.5-144.5v-66h1238zm0-326v255h-1238v-255h1238zm0-328v255h-1238v-255h1238zm0-140v67h-1238v-67q0-84 57.5-143.5t138.5-59.5h846q81 0 138.5 59.5t57.5 143.5z" fill="#60be86"/></svg>

<svg width="1792" height="1792" xmlns="http://www.w3.org/2000/svg"><path d="M1515 1253v66q0 85-57.5 144.5T1319 1523h-57l-260 269v-269H473q-81 0-138.5-59.5T277 1319v-66h1238zm0-326v255H277V927h1238zm0-328v255H277V599h1238zm0-140v67H277v-67q0-84 57.5-143.5T473 256h846q81 0 138.5 59.5T1515 459z" fill="#60be86"/></svg>
